X: 44
T: Rorospols
T: Roros Pols
O: Norway
M: 3/4
L: 1/8
Q: 1/4=120
P: AABB
K: G
%%MIDI program 41
%%MIDI bassprog 24
%%MIDI chordprog 24
P:A
|:"D"[G2d2]B2[d2B2]|dg [G2B2] [G2e2]|\
"D7"dc A2 F2|\
[1 [F2A2] [F4d4]:|[2"G"[F2A2] G4|
P:B
"D"[d3/2B3/2][c/A/][G3/2D3/2][F/D/][G2D2] |\
 "C"[e3/2c3/2][d/B/][c3/2A3/2][B/G/][A2F2]|\
"C"[A3/2F3/2][G/E/]"D"[F2D2][F2D2]|\
"C"[A2c2][A2c2]z2|
"D"[d3/2B3/2][c/A/][G3/2D3/2][F/D/][G2D2] |\
"C"[e3/2c3/2][d/B/][c3/2A3/2][B/G/][A2F2]|\
[A3/2F3/2][G/E/]"D"[F2D2][F2D2]|\
"G"[A2F2]G2z2|



